mimes/48/application-pdf.svg

<?xml version="1.0" encoding="UTF-8" standalone="no"?>
<svg
   version="1.1"
   width="48"
   height="48"
   id="svg3901"
   sodipodi:docname="application-pdf.svg"
   inkscape:version="1.4 (e7c3feb100, 2024-10-09)"
   xmlns:inkscape="http://www.inkscape.org/namespaces/inkscape"
   xmlns:sodipodi="http://sodipodi.sourceforge.net/DTD/sodipodi-0.dtd"
   xmlns:xlink="http://www.w3.org/1999/xlink"
   xmlns="http://www.w3.org/2000/svg"
   xmlns:svg="http://www.w3.org/2000/svg"
   xmlns:rdf="http://www.w3.org/1999/02/22-rdf-syntax-ns#"
   xmlns:cc="http://creativecommons.org/ns#"
   xmlns:dc="http://purl.org/dc/elements/1.1/">
  <sodipodi:namedview
     id="namedview1"
     pagecolor="#ffffff"
     bordercolor="#000000"
     borderopacity="0.25"
     inkscape:showpageshadow="2"
     inkscape:pageopacity="0.0"
     inkscape:pagecheckerboard="0"
     inkscape:deskcolor="#d1d1d1"
     inkscape:zoom="24.604167"
     inkscape:cx="24"
     inkscape:cy="24"
     inkscape:current-layer="svg3901" />
  <defs
     id="defs3903">
    <linearGradient
       id="linearGradient3403">
      <stop
         offset="0"
         style="stop-color:#ffffff;stop-opacity:1"
         id="stop3405" />
      <stop
         offset="0"
         style="stop-color:#ffffff;stop-opacity:0.23529412"
         id="stop3407" />
      <stop
         offset="1"
         style="stop-color:#ffffff;stop-opacity:0.15686275"
         id="stop3409" />
      <stop
         offset="1"
         style="stop-color:#ffffff;stop-opacity:0.39215687"
         id="stop3411" />
    </linearGradient>
    <linearGradient
       id="linearGradient3600">
      <stop
         id="stop3602"
         style="stop-color:#f4f4f4;stop-opacity:1"
         offset="0" />
      <stop
         id="stop3604"
         style="stop-color:#dbdbdb;stop-opacity:1"
         offset="1" />
    </linearGradient>
    <linearGradient
       id="linearGradient5060">
      <stop
         id="stop5062"
         style="stop-color:#000000;stop-opacity:1"
         offset="0" />
      <stop
         id="stop5064"
         style="stop-color:#000000;stop-opacity:0"
         offset="1" />
    </linearGradient>
    <linearGradient
       id="linearGradient5048">
      <stop
         id="stop5050"
         style="stop-color:#000000;stop-opacity:0"
         offset="0" />
      <stop
         id="stop5056"
         style="stop-color:#000000;stop-opacity:1"
         offset="0.5" />
      <stop
         id="stop5052"
         style="stop-color:#000000;stop-opacity:0"
         offset="1" />
    </linearGradient>
    <linearGradient
       id="linearGradient3104-6">
      <stop
         offset="0"
         style="stop-color:#000000;stop-opacity:0.31782946"
         id="stop3106-3" />
      <stop
         offset="1"
         style="stop-color:#000000;stop-opacity:0.24031007"
         id="stop3108-9" />
    </linearGradient>
    <linearGradient
       xlink:href="#linearGradient3403"
       id="linearGradient3106"
       gradientUnits="userSpaceOnUse"
       gradientTransform="matrix(0.89189189,0,0,1.1351351,2.5945999,-4.7432314)"
       x1="23.99999"
       y1="5.9404659"
       x2="23.99999"
       y2="42.110645" />
    <linearGradient
       xlink:href="#linearGradient3600"
       id="linearGradient3109"
       gradientUnits="userSpaceOnUse"
       gradientTransform="matrix(0.97142632,0,0,0.93431938,0.68576678,-1.3569996)"
       x1="25.132275"
       y1="0.98520643"
       x2="25.132275"
       y2="47.013336" />
    <radialGradient
       xlink:href="#linearGradient5060"
       id="radialGradient3112"
       gradientUnits="userSpaceOnUse"
       gradientTransform="matrix(0.02303995,0,0,0.01470022,26.360882,37.040176)"
       cx="605.71429"
       cy="486.64789"
       fx="605.71429"
       fy="486.64789"
       r="117.14286" />
    <radialGradient
       xlink:href="#linearGradient5060"
       id="radialGradient3115"
       gradientUnits="userSpaceOnUse"
       gradientTransform="matrix(-0.02303994,0,0,0.01470022,21.62311,37.040176)"
       cx="605.71429"
       cy="486.64789"
       fx="605.71429"
       fy="486.64789"
       r="117.14286" />
    <linearGradient
       xlink:href="#linearGradient5048"
       id="linearGradient3118"
       gradientUnits="userSpaceOnUse"
       gradientTransform="matrix(0.06732488,0,0,0.01470022,-0.3411391,37.040146)"
       x1="302.85715"
       y1="366.64789"
       x2="302.85715"
       y2="609.50507" />
    <linearGradient
       xlink:href="#linearGradient3104-6"
       id="linearGradient3170"
       gradientUnits="userSpaceOnUse"
       gradientTransform="matrix(0.80749686,0,0,0.89471714,59.410232,-2.9773433)"
       x1="-51.786404"
       y1="50.786446"
       x2="-51.786404"
       y2="2.9062471" />
    <linearGradient
       y2="42.100208"
       x2="23.99999"
       y1="5.8641062"
       x1="23.99999"
       gradientTransform="matrix(0.89188918,0,0,1.1351303,2.5946647,-4.7431617)"
       gradientUnits="userSpaceOnUse"
       id="linearGradient3132"
       xlink:href="#linearGradient3977-4-9" />
    <linearGradient
       id="linearGradient3977-4-9">
      <stop
         offset="0"
         style="stop-color:#ffffff;stop-opacity:1"
         id="stop3979-7-7" />
      <stop
         offset="0.01214366"
         style="stop-color:#ffffff;stop-opacity:0.23529412"
         id="stop3981-6-7" />
      <stop
         offset="0.98781353"
         style="stop-color:#ffffff;stop-opacity:0.15686275"
         id="stop3983-5-5" />
      <stop
         offset="1"
         style="stop-color:#ffffff;stop-opacity:0.39215687"
         id="stop3985-6-6" />
    </linearGradient>
    <linearGradient
       xlink:href="#linearGradient873"
       id="linearGradient856-2"
       x1="23.528315"
       y1="13.672997"
       x2="23.528315"
       y2="46.760742"
       gradientUnits="userSpaceOnUse"
       gradientTransform="translate(0,-2)" />
    <linearGradient
       id="linearGradient873">
      <stop
         style="stop-color:#ed5353;stop-opacity:1"
         offset="0"
         id="stop869" />
      <stop
         style="stop-color:#c6262e;stop-opacity:1"
         offset="1"
         id="stop871" />
    </linearGradient>
  </defs>
  <metadata
     id="metadata3906">
    <rdf:RDF>
      <cc:Work
         rdf:about="">
        <dc:format>image/svg+xml</dc:format>
        <dc:type
           rdf:resource="http://purl.org/dc/dcmitype/StillImage" />
      </cc:Work>
    </rdf:RDF>
  </metadata>
  <path
     id="path61"
     style="font-variation-settings:normal;opacity:1;vector-effect:none;fill:url(#linearGradient856-2);fill-opacity:1;stroke:none;stroke-width:1;stroke-linecap:butt;stroke-linejoin:miter;stroke-miterlimit:4;stroke-dasharray:none;stroke-dashoffset:0;stroke-opacity:0.5;-inkscape-stroke:none;marker:none;stop-color:#000000;stop-opacity:1"
     d="m 23.722656,11.658203 c -1.380955,-0.04377 -2.775695,0.249186 -4.074218,0.740235 -2.082365,0.790637 -3.987171,2.110805 -5.326172,3.890624 -1.340183,1.781001 -2.088561,4.032087 -1.916016,6.253907 0.113455,1.439455 0.607278,2.842403 1.367188,4.070312 0.752853,1.21768 1.764985,2.265321 2.917968,3.113281 -2.853369,1.81071 -5.86661,3.35623 -9.0019529,4.617188 3.4412239,-0.971667 6.7672189,-2.312805 9.9199219,-4 2.15295,1.316325 4.661487,2.019596 7.173828,2.341797 C 30.332351,33.395276 36.086542,32.278849 41,29.611328 v -5.294922 c -3.943995,3.295421 -8.892807,5.389774 -14.013672,5.865235 -2.525441,0.234103 -5.149227,0.07139 -7.474609,-0.919922 1.770855,-1.032667 3.475952,-2.174182 5.105469,-3.417969 1.703001,-1.316547 3.353759,-2.784921 4.392578,-4.669922 0.520001,-0.943092 0.876517,-1.984729 0.974609,-3.05664 0.09691,-1.07191 -0.07291,-2.175489 -0.552734,-3.138672 -0.421337,-0.829038 -1.040508,-1.541454 -1.802735,-2.074219 -0.761599,-0.530378 -1.623688,-0.899275 -2.533203,-1.083985 -0.452932,-0.09455 -0.912728,-0.147521 -1.373047,-0.162109 z m -0.533203,2.005859 c 0.272465,-0.0025 0.545179,0.01201 0.816406,0.04688 1.083728,0.139454 2.148741,0.622667 2.855469,1.457031 0.572,0.676001 0.88509,1.551546 0.939453,2.435547 0.05555,0.884 -0.138052,1.774799 -0.490234,2.58789 -0.703183,1.625001 -1.99981,2.910799 -3.322266,4.087891 -1.787452,1.583313 -3.675513,3.049268 -5.652343,4.388672 -0.947052,-0.554105 -1.804119,-1.262166 -2.490235,-2.117188 -0.85091,-1.057728 -1.434926,-2.340226 -1.601562,-3.6875 -0.243455,-1.965365 0.423251,-3.993964 1.652343,-5.546875 1.229092,-1.55291 2.986042,-2.64619 4.876954,-3.238281 0.782659,-0.24375 1.598621,-0.406473 2.416015,-0.414063 z"
     sodipodi:nodetypes="sccccccccccccccccccssccccccccscs" />
</svg>

<?xml version="1.0" encoding="UTF-8" standalone="no"?>
<svg
   version="1.1"
   width="48"
   height="48"
   id="svg3901"
   xmlns:xlink="http://www.w3.org/1999/xlink"
   xmlns="http://www.w3.org/2000/svg"
   xmlns:svg="http://www.w3.org/2000/svg"
   xmlns:rdf="http://www.w3.org/1999/02/22-rdf-syntax-ns#"
   xmlns:cc="http://creativecommons.org/ns#"
   xmlns:dc="http://purl.org/dc/elements/1.1/">
  <defs
     id="defs3903">
    <linearGradient
       id="linearGradient3403">
      <stop
         offset="0"
         style="stop-color:#ffffff;stop-opacity:1"
         id="stop3405" />
      <stop
         offset="0"
         style="stop-color:#ffffff;stop-opacity:0.23529412"
         id="stop3407" />
      <stop
         offset="1"
         style="stop-color:#ffffff;stop-opacity:0.15686275"
         id="stop3409" />
      <stop
         offset="1"
         style="stop-color:#ffffff;stop-opacity:0.39215687"
         id="stop3411" />
    </linearGradient>
    <linearGradient
       id="linearGradient3600">
      <stop
         id="stop3602"
         style="stop-color:#f4f4f4;stop-opacity:1"
         offset="0" />
      <stop
         id="stop3604"
         style="stop-color:#dbdbdb;stop-opacity:1"
         offset="1" />
    </linearGradient>
    <linearGradient
       id="linearGradient5060">
      <stop
         id="stop5062"
         style="stop-color:#000000;stop-opacity:1"
         offset="0" />
      <stop
         id="stop5064"
         style="stop-color:#000000;stop-opacity:0"
         offset="1" />
    </linearGradient>
    <linearGradient
       id="linearGradient5048">
      <stop
         id="stop5050"
         style="stop-color:#000000;stop-opacity:0"
         offset="0" />
      <stop
         id="stop5056"
         style="stop-color:#000000;stop-opacity:1"
         offset="0.5" />
      <stop
         id="stop5052"
         style="stop-color:#000000;stop-opacity:0"
         offset="1" />
    </linearGradient>
    <linearGradient
       id="linearGradient3104-6">
      <stop
         offset="0"
         style="stop-color:#000000;stop-opacity:0.31782946"
         id="stop3106-3" />
      <stop
         offset="1"
         style="stop-color:#000000;stop-opacity:0.24031007"
         id="stop3108-9" />
    </linearGradient>
    <linearGradient
       xlink:href="#linearGradient3403"
       id="linearGradient3106"
       gradientUnits="userSpaceOnUse"
       gradientTransform="matrix(0.89189189,0,0,1.1351351,2.5945999,-4.7432314)"
       x1="23.99999"
       y1="5.9404659"
       x2="23.99999"
       y2="42.110645" />
    <linearGradient
       xlink:href="#linearGradient3600"
       id="linearGradient3109"
       gradientUnits="userSpaceOnUse"
       gradientTransform="matrix(0.97142632,0,0,0.93431938,0.68576678,-1.3569996)"
       x1="25.132275"
       y1="0.98520643"
       x2="25.132275"
       y2="47.013336" />
    <radialGradient
       xlink:href="#linearGradient5060"
       id="radialGradient3112"
       gradientUnits="userSpaceOnUse"
       gradientTransform="matrix(0.02303995,0,0,0.01470022,26.360882,37.040176)"
       cx="605.71429"
       cy="486.64789"
       fx="605.71429"
       fy="486.64789"
       r="117.14286" />
    <radialGradient
       xlink:href="#linearGradient5060"
       id="radialGradient3115"
       gradientUnits="userSpaceOnUse"
       gradientTransform="matrix(-0.02303994,0,0,0.01470022,21.62311,37.040176)"
       cx="605.71429"
       cy="486.64789"
       fx="605.71429"
       fy="486.64789"
       r="117.14286" />
    <linearGradient
       xlink:href="#linearGradient5048"
       id="linearGradient3118"
       gradientUnits="userSpaceOnUse"
       gradientTransform="matrix(0.06732488,0,0,0.01470022,-0.3411391,37.040146)"
       x1="302.85715"
       y1="366.64789"
       x2="302.85715"
       y2="609.50507" />
    <linearGradient
       xlink:href="#linearGradient3104-6"
       id="linearGradient3170"
       gradientUnits="userSpaceOnUse"
       gradientTransform="matrix(0.80749686,0,0,0.89471714,59.410232,-2.9773433)"
       x1="-51.786404"
       y1="50.786446"
       x2="-51.786404"
       y2="2.9062471" />
    <linearGradient
       y2="42.100208"
       x2="23.99999"
       y1="5.8641062"
       x1="23.99999"
       gradientTransform="matrix(0.89188918,0,0,1.1351303,2.5946647,-4.7431617)"
       gradientUnits="userSpaceOnUse"
       id="linearGradient3132"
       xlink:href="#linearGradient3977-4-9" />
    <linearGradient
       id="linearGradient3977-4-9">
      <stop
         offset="0"
         style="stop-color:#ffffff;stop-opacity:1"
         id="stop3979-7-7" />
      <stop
         offset="0.01214366"
         style="stop-color:#ffffff;stop-opacity:0.23529412"
         id="stop3981-6-7" />
      <stop
         offset="0.98781353"
         style="stop-color:#ffffff;stop-opacity:0.15686275"
         id="stop3983-5-5" />
      <stop
         offset="1"
         style="stop-color:#ffffff;stop-opacity:0.39215687"
         id="stop3985-6-6" />
    </linearGradient>
    <linearGradient
       xlink:href="#linearGradient873"
       id="linearGradient856-2"
       x1="23.528315"
       y1="13.672997"
       x2="23.528315"
       y2="46.760742"
       gradientUnits="userSpaceOnUse"
       gradientTransform="translate(0,-2)" />
    <linearGradient
       id="linearGradient873">
      <stop
         style="stop-color:#ed5353;stop-opacity:1"
         offset="0"
         id="stop869" />
      <stop
         style="stop-color:#c6262e;stop-opacity:1"
         offset="1"
         id="stop871" />
    </linearGradient>
  </defs>
  <metadata
     id="metadata3906">
    <rdf:RDF>
      <cc:Work
         rdf:about="">
        <dc:format>image/svg+xml</dc:format>
        <dc:type
           rdf:resource="http://purl.org/dc/dcmitype/StillImage" />
      </cc:Work>
    </rdf:RDF>
  </metadata>
  <rect
     style="opacity:0.3;fill:url(#linearGradient3118);fill-opacity:1;fill-rule:nonzero;stroke:none;stroke-width:1;marker:none;visibility:visible;display:inline;overflow:visible"
     id="rect2879"
     y="42.429947"
     x="7.7378473"
     height="3.5700529"
     width="32.508301" />
  <path
     style="opacity:0.3;fill:url(#radialGradient3115);fill-opacity:1;fill-rule:nonzero;stroke:none;stroke-width:1;marker:none;visibility:visible;display:inline;overflow:visible"
     id="path2881"
     d="m 7.7378475,42.430102 c 0,0 0,3.569856 0,3.569856 -1.1865002,0.0067 -2.8683795,-0.799823 -2.8683795,-1.785158 0,-0.985333 1.3240446,-1.784697 2.8683795,-1.784698 z" />
  <path
     style="opacity:0.3;fill:url(#radialGradient3112);fill-opacity:1;fill-rule:nonzero;stroke:none;stroke-width:1;marker:none;visibility:visible;display:inline;overflow:visible"
     id="path2883"
     d="m 40.246148,42.430102 c 0,0 0,3.569856 0,3.569856 1.1865,0.0067 2.86838,-0.799823 2.86838,-1.785158 0,-0.985333 -1.324045,-1.784697 -2.86838,-1.784698 z" />
  <path
     style="fill:url(#linearGradient3109);fill-opacity:1;stroke:none;display:inline"
     id="path4160"
     d="m 7,1.0000001 c 7.791126,0 33.999959,0.00274 33.999959,0.00274 L 41,44 C 41,44 18.333334,44 7,44 7,29.666666 7,15.333333 7,1 z" />
  <path
     style="fill:none;stroke:url(#linearGradient3106);stroke-width:1;stroke-linecap:round;stroke-linejoin:miter;stroke-miterlimit:4;stroke-opacity:1;stroke-dasharray:none;stroke-dashoffset:0"
     id="rect6741-1"
     d="m 40.5,43.5 -33,0 0,-41.9999998 33,0 z" />
  <path
     style="fill:none;stroke:url(#linearGradient3170);stroke-width:0.99992192;stroke-linecap:butt;stroke-linejoin:round;stroke-miterlimit:4;stroke-opacity:1;stroke-dasharray:none;stroke-dashoffset:0;display:inline"
     id="path4160-6-1"
     d="m 6.4999605,0.4999623 c 8.0202885,0 35.0000415,0.00298 35.0000415,0.00298 l 3.7e-5,43.9970957 c 0,0 -23.333385,0 -35.0000785,0 0,-14.666738 0,-29.333326 0,-43.9998923 z" />
  <path
     id="path61"
     style="stroke-width:1;marker:none;font-variation-settings:normal;opacity:1;vector-effect:none;fill:url(#linearGradient856-2);fill-opacity:1;stroke:none;stroke-linecap:butt;stroke-linejoin:miter;stroke-miterlimit:4;stroke-dasharray:none;stroke-dashoffset:0;stroke-opacity:0.5;-inkscape-stroke:none;stop-color:#000000;stop-opacity:1"
     d="M 23.722656 11.658203 C 22.341701 11.614438 20.946961 11.907389 19.648438 12.398438 C 17.566073 13.189075 15.661267 14.509243 14.322266 16.289062 C 12.982083 18.070063 12.233705 20.321149 12.40625 22.542969 C 12.519705 23.982424 13.013528 25.385372 13.773438 26.613281 C 14.526291 27.830961 15.538423 28.878602 16.691406 29.726562 A 55.336311 55.336311 0 0 1 7.6894531 34.34375 A 49.573762 49.573762 0 0 0 17.609375 30.34375 C 19.762325 31.660075 22.270862 32.363346 24.783203 32.685547 C 30.332351 33.395276 36.086542 32.278849 41 29.611328 L 41 24.316406 C 37.056005 27.611827 32.107193 29.70618 26.986328 30.181641 C 24.460887 30.415744 21.837101 30.253035 19.511719 29.261719 A 49.573762 49.573762 0 0 0 24.617188 25.84375 C 26.320189 24.527203 27.970947 23.058829 29.009766 21.173828 C 29.529767 20.230736 29.886283 19.189099 29.984375 18.117188 C 30.081285 17.045278 29.911463 15.941699 29.431641 14.978516 A 5.6585494 5.6585494 0 0 0 27.628906 12.904297 A 6.8013683 6.8013683 0 0 0 25.095703 11.820312 C 24.642771 11.725767 24.182975 11.672791 23.722656 11.658203 z M 23.189453 13.664062 C 23.461918 13.661533 23.734632 13.676074 24.005859 13.710938 C 25.089587 13.850392 26.1546 14.333605 26.861328 15.167969 C 27.433328 15.84397 27.746418 16.719515 27.800781 17.603516 C 27.856331 18.487516 27.662729 19.378315 27.310547 20.191406 C 26.607364 21.816407 25.310737 23.102205 23.988281 24.279297 A 55.336311 55.336311 0 0 1 18.335938 28.667969 C 17.388886 28.113864 16.531819 27.405803 15.845703 26.550781 C 14.994793 25.493053 14.410777 24.210555 14.244141 22.863281 C 14.000686 20.897916 14.667392 18.869317 15.896484 17.316406 C 17.125576 15.763496 18.882526 14.670216 20.773438 14.078125 C 21.556097 13.834375 22.372059 13.671652 23.189453 13.664062 z " />
  <path
     style="opacity:0.3;fill:none;stroke:url(#linearGradient3132);stroke-width:1;stroke-linecap:round;stroke-linejoin:miter;stroke-miterlimit:4;stroke-dasharray:none;stroke-dashoffset:0;stroke-opacity:1"
     d="m 7.5000497,14.488301 0,4.528977 m 20.7423853,24.482672 12.257515,0 0,-17.600699 M 40.4799,1.50005 l -12.606993,0 m -20.3728553,23.309772 0,4.303032 M 22.30847,43.49995 l 3.847124,0"
     id="rect6741-1-8-0" />
</svg>
